X: 1
T:Peek A Boo Waltz
M:3/4
Q:340
N:Tune of old song, learned from numerous old-timers.
Z:posted by Joel Shimberg, 5/99
K:D
FG|A2 f2 e2|d2 c2 B2|A3B A>G|F2 z2FG|A2f2e2|d2c2d2|e4 e>f|e2F2G2|
A2 f2 e2|d2 c2 B2|A3B AG|F2 G2 A2|B2 g2 f2|e2 B2 c2|d4 d>e|d4:|
F>G|A4 f2|A2 ^G2 A2|B4 g2|B4 d2|c4 (3cdc|B4 (3BcB|A3 BAG|F4 F>G|
A4f2|A2^G2A2|B4g2|B4d2|c2B2A2|g2f2e2|d3 cd>e|d4:|
